app/img/svg/soc-icon-ig.svg

<?xml version="1.0" encoding="UTF-8"?>
<svg viewBox="0 0 33 32" version="1.1" xmlns="http://www.w3.org/2000/svg" xmlns:xlink="http://www.w3.org/1999/xlink">
    <defs>
        <polygon id="path-1" points="32.066 0 0.000666666667 0 0.000666666667 31.9994667 32.066 31.9994667 32.066 4.73695157e-15"></polygon>
    </defs>
    <g id="Landing-64" stroke="none" stroke-width="1" fill="none" fill-rule="evenodd">
        <g id="Desktop-1248-13-(open-menu)" transform="translate(-352.000000, -576.000000)">
            <g id="Group" transform="translate(80.000000, 120.000000)">
                <g id="Group-7" transform="translate(144.000000, 456.000000)">
                    <g id="soc-icon-ig" transform="translate(128.000000, 0.000000)">
                        <g id="Group-3">
                            <mask id="mask-2" fill="white">
                                <use xlink:href="#path-1"></use>
                            </mask>
                            <g id="Clip-2"></g>
                            <path d="M28.1113333,21.1621333 C28.1113333,25.1714667 24.85,28.4341333 20.8393333,28.4341333 L11.226,28.4341333 C7.21666667,28.4341333 3.95533333,25.1714667 3.95533333,21.1621333 L3.95533333,10.9048 C3.95533333,6.89413333 7.21666667,3.6328 11.226,3.6328 L20.8393333,3.6328 C24.85,3.6328 28.1113333,6.89413333 28.1113333,10.9048 L28.1113333,21.1621333 Z M25.09,-0.000533333334 L6.97666667,-0.000533333334 C3.12333333,-0.000533333334 0.000666666667,3.13813333 0.000666666667,7.01013333 L0.000666666667,24.9901333 C0.000666666667,28.8608 3.12333333,31.9994667 6.97666667,31.9994667 L25.09,31.9994667 C28.9433333,31.9994667 32.066,28.8608 32.066,24.9901333 L32.066,7.01013333 C32.066,3.13813333 28.9433333,-0.000533333334 25.09,-0.000533333334 L25.09,-0.000533333334 Z" id="Fill-1" fill="#FFFFFF" mask="url(#mask-2)"></path>
                        </g>
                        <path d="M15.9862667,12.3184 C15.9529333,12.3170667 15.9196,12.3170667 15.8862667,12.3170667 C14.9542667,12.3170667 14.0716,12.6997333 13.4036,13.3930667 C12.7249333,14.0957333 12.3516,15.0224 12.3516,15.9997333 C12.3516,18.0304 14.0036,19.6810667 16.0329333,19.6810667 C18.0516,19.6810667 19.6689333,18.0490667 19.7142667,15.9650667 C19.7316,15.2290667 19.5956,14.1864 18.8622667,13.4024 C18.2316,12.7290667 17.2369333,12.3544 15.9862667,12.3184" id="Fill-4" fill="#FFFFFF"></path>
                        <path d="M22.5436,10.9466667 C21.7249333,10.9466667 21.0609333,10.2826667 21.0609333,9.464 C21.0609333,8.64533333 21.7249333,7.98133333 22.5436,7.98133333 C23.3622667,7.98133333 24.0262667,8.64533333 24.0262667,9.464 C24.0262667,10.2826667 23.3622667,10.9466667 22.5436,10.9466667 M20.8862667,20.8666667 C19.5929333,22.172 17.8689333,22.8906667 16.0329333,22.8906667 C12.2342667,22.8906667 9.14226667,19.8 9.14226667,16 C9.14226667,12.1333333 12.2716,8.99866667 16.0796,9.11066667 C18.2049333,9.172 19.9769333,9.89733333 21.2036,11.208 C22.3702667,12.4533333 22.9649333,14.1226667 22.9236,16.0346667 C22.8836,17.8666667 22.1596,19.584 20.8862667,20.8666667 M20.8396,6.25866667 L11.2262667,6.25866667 C8.66493333,6.25866667 6.58093333,8.34266667 6.58093333,10.904 L6.58093333,21.1626667 C6.58093333,23.724 8.66493333,25.808 11.2262667,25.808 L20.8396,25.808 C23.4022667,25.808 25.4862667,23.724 25.4862667,21.1626667 L25.4862667,10.904 C25.4862667,8.34266667 23.4022667,6.25866667 20.8396,6.25866667" id="Fill-6" fill="#FFFFFF"></path>
                    </g>
                </g>
            </g>
        </g>
    </g>
</svg>

<svg viewBox="0 0 33 32" xmlns="http://www.w3.org/2000/svg" xmlns:xlink="http://www.w3.org/1999/xlink">
    <defs>
        <path id="a" d="M32.066 0H.001v32h32.065V0z"/>
    </defs>
    <g fill="none" fill-rule="evenodd">
        <mask id="b" fill="#fff">
            <use xlink:href="#a"/>
        </mask>
        <path d="M28.111 21.162a7.28 7.28 0 0 1-7.272 7.272h-9.613c-4.01 0-7.27-3.263-7.27-7.272V10.905c0-4.01 3.26-7.272 7.27-7.272h9.613a7.28 7.28 0 0 1 7.272 7.272v10.257zM25.09 0H6.977C3.123 0 0 3.14 0 7.01v17.98C0 28.86 3.123 32 6.977 32H25.09c3.853 0 6.976-3.14 6.976-7.01V7.01c0-3.872-3.123-7.01-6.976-7.01z" fill="#FFF" mask="url(#b)"/>
        <path d="M15.986 12.318h-.1a3.43 3.43 0 0 0-2.482 1.075A3.735 3.735 0 0 0 12.352 16a3.685 3.685 0 0 0 3.68 3.681c2.02 0 3.637-1.632 3.682-3.716.018-.736-.118-1.779-.852-2.563-.63-.673-1.625-1.048-2.876-1.084" fill="#FFF"/>
        <path d="M22.544 10.947a1.483 1.483 0 1 1 0-2.966 1.483 1.483 0 0 1 0 2.966m-1.658 9.92a6.785 6.785 0 0 1-4.853 2.024A6.899 6.899 0 0 1 9.143 16c0-3.867 3.129-7.001 6.937-6.89 2.125.062 3.897.787 5.124 2.098 1.166 1.245 1.76 2.915 1.72 4.827a7.044 7.044 0 0 1-2.038 4.832M20.84 6.259h-9.614a4.65 4.65 0 0 0-4.645 4.645v10.259a4.65 4.65 0 0 0 4.645 4.645h9.614a4.651 4.651 0 0 0 4.646-4.645V10.904a4.651 4.651 0 0 0-4.646-4.645" fill="#FFF"/>
    </g>
</svg>
